public/favicon.svg

<svg width="16" height="16" viewBox="0 0 16 16" fill="none" xmlns="http://www.w3.org/2000/svg">
<rect width="16" height="16" fill="white"/>
<path d="M13.3188 3.81453C13.2507 3.40627 13.0823 3.04406 12.8134 2.72792C12.5439 2.41247 12.2168 2.18426 11.8314 2.04329L9.34718 1.13603C9.05166 1.02786 8.7442 0.984593 8.42341 1.00483C8.10192 1.02577 7.80569 1.09835 7.53404 1.22327C7.26168 1.34889 7.02021 1.52825 6.81033 1.76344C6.59974 1.99793 6.44461 2.2708 6.34423 2.58136L5.42538 5.36524C5.31236 5.70581 5.27937 6.05057 5.3264 6.39952L6.51621 5.63882C6.62501 5.56903 6.74996 5.53274 6.87842 5.53274C7.17604 5.53274 7.43436 5.72256 7.5207 6.00591L8.65154 9.70332C8.71402 9.9078 8.67681 10.1228 8.54906 10.2944C8.42271 10.464 8.22125 10.5652 8.00996 10.5652C7.93064 10.5652 7.85272 10.5513 7.77762 10.524L7.52912 10.4333L6.81384 12.37C6.8019 12.4028 6.78435 12.4307 6.76259 12.4523C6.74224 12.4725 6.71767 12.4879 6.68959 12.4984C6.63063 12.52 6.57237 12.5207 6.5141 12.4998C6.45654 12.4788 6.41232 12.4411 6.38143 12.386C6.35055 12.3316 6.34704 12.2723 6.37091 12.2087L7.24273 9.84988L7.93415 10.1018C8.10332 10.1639 8.27109 10.0062 8.21844 9.83522L7.0869 6.13781C7.04478 5.99963 6.88193 5.9403 6.75979 6.01847L5.43591 6.86501L3.4901 8.10934C3.33848 8.20635 3.36375 8.43386 3.53292 8.49597L4.00744 8.66905L3.15036 10.9902C3.14544 11.0028 3.14193 11.0161 3.13702 11.0286C3.08578 11.1759 3.04857 11.3217 3.02541 11.4676C2.95872 11.9031 3.0233 12.3316 3.21915 12.7538C3.48729 13.3296 3.9232 13.7281 4.52618 13.9486L7.01038 14.8558C8.23108 15.3018 9.60269 14.6835 10.014 13.4105L11.1414 10.0634C11.4818 8.99915 11.0417 7.63687 9.72412 7.15603L9.19977 6.96481C8.76596 6.80638 8.54415 6.32903 8.70349 5.89773L9.54372 3.62331C9.56759 3.55911 9.6083 3.51654 9.66797 3.4949C9.72693 3.47327 9.78519 3.47257 9.84346 3.4935C9.90102 3.51444 9.94524 3.55283 9.97612 3.60726C10.007 3.6617 10.0105 3.72171 9.98665 3.78522L9.15344 6.0408C9.08044 6.239 9.18222 6.45884 9.38157 6.53142L11.8946 7.44914C12.0939 7.52172 12.315 7.42053 12.388 7.22233L13.2072 5.00513C13.349 4.62199 13.3855 4.22629 13.3181 3.81802L13.3188 3.81453Z" fill="#161728"/>
</svg>

<?xml version="1.0" encoding="utf-8"?>
<!-- Generator: Adobe Illustrator 27.3.1, SVG Export Plug-In . SVG Version: 6.00 Build 0)  -->
<svg version="1.1" id="Layer_1" xmlns="http://www.w3.org/2000/svg" xmlns:xlink="http://www.w3.org/1999/xlink" x="0px" y="0px"
	 viewBox="0 0 16 16" style="enable-background:new 0 0 16 16;" xml:space="preserve">
<style type="text/css">
	.st0{fill:#18F27A;}
	.st1{fill:#161728;}
</style>
<rect class="st0" width="16" height="16"/>
<path class="st1" d="M13.3,3.8c-0.1-0.4-0.2-0.8-0.5-1.1c-0.3-0.3-0.6-0.5-1-0.7L9.3,1.1C9.1,1,8.7,1,8.4,1C8.1,1,7.8,1.1,7.5,1.2
	C7.3,1.3,7,1.5,6.8,1.8C6.6,2,6.4,2.3,6.3,2.6L5.4,5.4c-0.1,0.3-0.1,0.7-0.1,1l1.2-0.8c0.1-0.1,0.2-0.1,0.4-0.1
	c0.3,0,0.6,0.2,0.6,0.5l1.1,3.7c0.1,0.2,0,0.4-0.1,0.6c-0.1,0.2-0.3,0.3-0.5,0.3c-0.1,0-0.2,0-0.2,0l-0.2-0.1l-0.7,1.9
	c0,0,0,0.1-0.1,0.1c0,0,0,0-0.1,0c-0.1,0-0.1,0-0.2,0c-0.1,0-0.1-0.1-0.1-0.1c0-0.1,0-0.1,0-0.2l0.9-2.4l0.7,0.3
	c0.2,0.1,0.3-0.1,0.3-0.3L7.1,6.1C7,6,6.9,5.9,6.8,6L5.4,6.9L3.5,8.1c-0.2,0.1-0.1,0.3,0,0.4L4,8.7L3.2,11c0,0,0,0,0,0
	C3.1,11.2,3,11.3,3,11.5c-0.1,0.4,0,0.9,0.2,1.3c0.3,0.6,0.7,1,1.3,1.2L7,14.9c1.2,0.4,2.6-0.2,3-1.4l1.1-3.3C11.5,9,11,7.6,9.7,7.2
	L9.2,7C8.8,6.8,8.5,6.3,8.7,5.9l0.8-2.3c0-0.1,0.1-0.1,0.1-0.1c0.1,0,0.1,0,0.2,0c0.1,0,0.1,0.1,0.1,0.1c0,0.1,0,0.1,0,0.2L9.2,6
	c-0.1,0.2,0,0.4,0.2,0.5l2.5,0.9c0.2,0.1,0.4,0,0.5-0.2L13.2,5C13.3,4.6,13.4,4.2,13.3,3.8L13.3,3.8z"/>
</svg>
